; generated by PrusaSlicer 2.2.0+win64 on 2020-08-11 at 20:03:51 UTC


;
;

;
;
; 

; external perimeters extrusion width = 0.45mm
; perimeters extrusion width = 0.45mm
; infill extrusion width = 0.45mm
; solid infill extrusion width = 0.45mm
; top infill extrusion width = 0.40mm
; first layer extrusion width = 0.42mm

M201 X500 Y500 Z100 E5000 ; sets maximum accelerations, mm/sec^2
M203 X500 Y500 Z10 E60 ; sets maximum feedrates, mm/sec
M204 P500 R1000 T500 ; sets acceleration (P, T) and retract acceleration (R), mm/sec^2
M205 X8.00 Y8.00 Z0.40 E5.00 ; sets the jerk limits, mm/sec
M205 S0 T0 ; sets the minimum extruding and travel feed rate, mm/sec
M107 ; disable fan
G90 ; use absolute coordinates
M83 ; extruder relative mode
M104 S240 ; set extruder temp
M140 S80 ; set bed temp
M190 S80 ; wait for bed temp
M109 S240 ; wait for extruder temp
G28 ; home all
G1 Z2 F240
G1 X2 Y10 F3000
G1 Z0.28 F240
G92 E0.0
G1 Y190 E15.0 F1500.0 ; intro line
G1 X2.3 F5000
G1 Y10 E30 F1200.0 ; intro line
G92 E0.0
G21 ; set units to millimeters
G90 ; use absolute coordinates
M83 ; use relative distances for extrusion
; Filament gcode
;BEFORE_LAYER_CHANGE
;0.3
;LAYER:0
G1 E-4.50000 F2100.00000 ; retract
G1 Z0.300 F9000.000 ; move to next layer (0)
;AFTER_LAYER_CHANGE
;0.3
G1 X3.157 Y4.746 ; move to first skirt point
G1 E4.50000 F2400.00000 ; unretract
G1 F600.000
G1 X4.046 Y4.468 E0.04185 ; skirt
G1 X4.968 Y4.370 E0.04161 ; skirt
G1 X215.005 Y4.370 E9.43544 ; skirt
G1 X215.916 Y4.460 E0.04113 ; skirt
G1 X216.788 Y4.723 E0.04089 ; skirt
G1 X217.597 Y5.151 E0.04113 ; skirt
G1 X218.308 Y5.727 E0.04113 ; skirt
G1 X218.895 Y6.431 E0.04113 ; skirt
G1 X219.334 Y7.234 E0.04113 ; skirt
G1 X219.609 Y8.107 E0.04113 ; skirt
G1 X219.711 Y9.012 E0.04089 ; skirt
G1 X219.711 Y219.114 E9.43833 ; skirt
G1 X219.618 Y220.014 E0.04065 ; skirt
G1 X219.357 Y220.875 E0.04041 ; skirt
G1 X218.934 Y221.674 E0.04065 ; skirt
G1 X218.369 Y222.375 E0.04041 ; skirt
G1 X217.651 Y222.976 E0.04209 ; skirt
G1 X216.828 Y223.424 E0.04209 ; skirt
G1 X215.933 Y223.700 E0.04209 ; skirt
G1 X215.000 Y223.793 E0.04210 ; skirt
G1 X4.968 Y223.793 E9.43518 ; skirt
G1 X4.068 Y223.700 E0.04065 ; skirt
G1 X3.207 Y223.438 E0.04041 ; skirt
G1 X2.407 Y223.015 E0.04065 ; skirt
G1 X1.707 Y222.451 E0.04041 ; skirt
G1 X1.105 Y221.733 E0.04209 ; skirt
G1 X0.658 Y220.909 E0.04209 ; skirt
G1 X0.382 Y220.014 E0.04209 ; skirt
G1 X0.289 Y219.082 E0.04210 ; skirt
G1 X0.289 Y9.049 E9.43518 ; skirt
G1 X0.382 Y8.149 E0.04065 ; skirt
G1 X0.643 Y7.289 E0.04041 ; skirt
G1 X1.066 Y6.489 E0.04065 ; skirt
G1 X1.631 Y5.788 E0.04041 ; skirt
G1 X2.340 Y5.193 E0.04161 ; skirt
G1 X3.105 Y4.774 E0.03915 ; skirt
G1 X3.274 Y5.085 F9000.000 ; move to first skirt point
G1 F600.000
G1 X4.120 Y4.816 E0.03985 ; skirt
G1 X4.974 Y4.726 E0.03862 ; skirt
G1 X215.005 Y4.726 E9.43512 ; skirt
G1 X215.845 Y4.809 E0.03793 ; skirt
G1 X216.654 Y5.052 E0.03793 ; skirt
G1 X217.404 Y5.450 E0.03816 ; skirt
G1 X218.060 Y5.982 E0.03793 ; skirt
G1 X218.600 Y6.630 E0.03793 ; skirt
G1 X219.006 Y7.371 E0.03793 ; skirt
G1 X219.260 Y8.176 E0.03793 ; skirt
G1 X219.355 Y9.020 E0.03816 ; skirt
G1 X219.356 Y219.107 E9.43766 ; skirt
G1 X219.270 Y219.942 E0.03770 ; skirt
G1 X219.027 Y220.740 E0.03747 ; skirt
G1 X218.638 Y221.477 E0.03747 ; skirt
G1 X218.111 Y222.130 E0.03770 ; skirt
G1 X217.447 Y222.685 E0.03885 ; skirt
G1 X216.687 Y223.097 E0.03885 ; skirt
G1 X215.860 Y223.351 E0.03885 ; skirt
G1 X215.000 Y223.437 E0.03884 ; skirt
G1 X4.974 Y223.437 E9.43489 ; skirt
G1 X4.139 Y223.351 E0.03770 ; skirt
G1 X3.341 Y223.109 E0.03747 ; skirt
G1 X2.604 Y222.719 E0.03747 ; skirt
G1 X1.951 Y222.192 E0.03770 ; skirt
G1 X1.397 Y221.529 E0.03885 ; skirt
G1 X0.984 Y220.768 E0.03885 ; skirt
G1 X0.730 Y219.942 E0.03885 ; skirt
G1 X0.644 Y219.082 E0.03884 ; skirt
G1 X0.644 Y9.056 E9.43489 ; skirt
G1 X0.730 Y8.221 E0.03770 ; skirt
G1 X0.973 Y7.423 E0.03747 ; skirt
G1 X1.362 Y6.686 E0.03747 ; skirt
G1 X1.889 Y6.033 E0.03770 ; skirt
G1 X2.549 Y5.481 E0.03862 ; skirt
G1 X3.222 Y5.114 E0.03443 ; skirt
; printing object Bed_Level_Test.stl id:0 copy 0
G1 E-3.15000 F2100.00000 ; retract
G1 F7200.000
G1 X4.120 Y4.816 E-0.26215 ; wipe and retract
G1 X4.974 Y4.726 E-0.23820 ; wipe and retract
G1 X7.797 Y4.726 E-0.78215 ; wipe and retract
G1 E-0.06750 F2100.00000 ; retract
G1 X99.316 Y103.397 F9000.000 ; move to first perimeter point
G1 E4.50000 F2400.00000 ; unretract
G1 F600.000
G1 X120.684 Y103.397 E0.95994 ; perimeter
G1 X120.684 Y124.766 E0.95994 ; perimeter
G1 X99.316 Y124.766 E0.95994 ; perimeter
G1 X99.316 Y103.457 E0.95724 ; perimeter
G1 X98.960 Y103.042 F9000.000 ; move to first perimeter point
G1 F600.000
G1 X121.040 Y103.042 E0.99189 ; perimeter
G1 X121.040 Y125.122 E0.99189 ; perimeter
G1 X98.960 Y125.122 E0.99189 ; perimeter
G1 X98.960 Y103.102 E0.98919 ; perimeter
G1 X99.346 Y103.145 F9000.000 ; move inwards before travel
G1 E-3.15000 F2100.00000 ; retract
G1 F7200.000
G1 X103.589 Y103.089 E-1.28250 ; wipe and retract
G1 E-0.06750 F2100.00000 ; retract
G1 X193.066 Y31.016 F9000.000 ; move to first perimeter point
G1 E4.50000 F2400.00000 ; unretract
G1 F600.000
G1 X193.066 Y9.647 E0.95994 ; perimeter
G1 X214.434 Y9.647 E0.95994 ; perimeter
G1 X214.434 Y31.016 E0.95994 ; perimeter
G1 X193.126 Y31.016 E0.95724 ; perimeter
G1 X192.710 Y31.372 F9000.000 ; move to first perimeter point
G1 F600.000
G1 X192.710 Y9.292 E0.99189 ; perimeter
G1 X214.790 Y9.292 E0.99189 ; perimeter
G1 X214.790 Y31.372 E0.99189 ; perimeter
G1 X192.770 Y31.372 E0.98919 ; perimeter
G1 X192.814 Y30.985 F9000.000 ; move inwards before travel
G1 E-3.15000 F2100.00000 ; retract
G1 F7200.000
G1 X192.757 Y26.743 E-1.28250 ; wipe and retract
G1 E-0.06750 F2100.00000 ; retract
G1 X26.934 Y31.016 F9000.000 ; move to first perimeter point
G1 E4.50000 F2400.00000 ; unretract
G1 F600.000
G1 X5.566 Y31.016 E0.95994 ; perimeter
G1 X5.566 Y9.647 E0.95994 ; perimeter
G1 X26.934 Y9.647 E0.95994 ; perimeter
G1 X26.934 Y30.956 E0.95724 ; perimeter
G1 X27.290 Y31.372 F9000.000 ; move to first perimeter point
G1 F600.000
G1 X5.210 Y31.372 E0.99189 ; perimeter
G1 X5.210 Y9.292 E0.99189 ; perimeter
G1 X27.290 Y9.292 E0.99189 ; perimeter
G1 X27.290 Y31.312 E0.98919 ; perimeter
G1 X26.904 Y31.268 F9000.000 ; move inwards before travel
G1 E-3.15000 F2100.00000 ; retract
G1 F7200.000
G1 X22.661 Y31.324 E-1.28250 ; wipe and retract
G1 E-0.06750 F2100.00000 ; retract
G1 X26.934 Y197.147 F9000.000 ; move to first perimeter point
G1 E4.50000 F2400.00000 ; unretract
G1 F600.000
G1 X26.934 Y218.516 E0.95994 ; perimeter
G1 X5.566 Y218.516 E0.95994 ; perimeter
G1 X5.566 Y197.147 E0.95994 ; perimeter
G1 X26.874 Y197.147 E0.95724 ; perimeter
G1 X27.290 Y196.792 F9000.000 ; move to first perimeter point
G1 F600.000
G1 X27.290 Y218.872 E0.99189 ; perimeter
G1 X5.210 Y218.872 E0.99189 ; perimeter
G1 X5.210 Y196.792 E0.99189 ; perimeter
G1 X27.230 Y196.792 E0.98919 ; perimeter
G1 X27.186 Y197.178 F9000.000 ; move inwards before travel
G1 E-3.15000 F2100.00000 ; retract
G1 F7200.000
G1 X27.243 Y201.420 E-1.28250 ; wipe and retract
G1 E-0.06750 F2100.00000 ; retract
G1 X193.066 Y197.147 F9000.000 ; move to first perimeter point
G1 E4.50000 F2400.00000 ; unretract
G1 F600.000
G1 X214.434 Y197.147 E0.95994 ; perimeter
G1 X214.434 Y218.516 E0.95994 ; perimeter
G1 X193.066 Y218.516 E0.95994 ; perimeter
G1 X193.066 Y197.207 E0.95724 ; perimeter
G1 X192.710 Y196.792 F9000.000 ; move to first perimeter point
G1 F600.000
G1 X214.790 Y196.792 E0.99189 ; perimeter
G1 X214.790 Y218.872 E0.99189 ; perimeter
G1 X192.710 Y218.872 E0.99189 ; perimeter
G1 X192.710 Y196.852 E0.98919 ; perimeter
G1 X193.096 Y196.895 F9000.000 ; move inwards before travel
G1 E-3.15000 F2100.00000 ; retract
G1 F7200.000
G1 X197.339 Y196.839 E-1.28250 ; wipe and retract
G1 E-0.06750 F2100.00000 ; retract
G1 X193.894 Y218.409 F9000.000 ; move to first infill point
G1 E4.50000 F2400.00000 ; unretract
G1 F600.000
G1 X193.332 Y217.848 E0.03577 ; infill
G1 X193.332 Y217.343 E0.02274 ; infill
G1 X194.238 Y218.249 E0.05773 ; infill
G1 X194.743 Y218.249 E0.02274 ; infill
G1 X193.332 Y216.839 E0.08989 ; infill
G1 X193.332 Y216.334 E0.02274 ; infill
G1 X195.247 Y218.249 E0.12205 ; infill
G1 X195.752 Y218.249 E0.02274 ; infill
G1 X193.332 Y215.830 E0.15420 ; infill
G1 X193.332 Y215.325 E0.02274 ; infill
G1 X196.256 Y218.249 E0.18636 ; infill
G1 X196.761 Y218.249 E0.02274 ; infill
G1 X193.332 Y214.821 E0.21852 ; infill
G1 X193.332 Y214.316 E0.02274 ; infill
G1 X197.265 Y218.249 E0.25067 ; infill
G1 X197.770 Y218.249 E0.02274 ; infill
G1 X193.332 Y213.812 E0.28283 ; infill
G1 X193.332 Y213.307 E0.02274 ; infill
G1 X198.274 Y218.249 E0.31499 ; infill
G1 X198.779 Y218.249 E0.02274 ; infill
G1 X193.332 Y212.803 E0.34715 ; infill
G1 X193.332 Y212.298 E0.02274 ; infill
G1 X199.284 Y218.249 E0.37930 ; infill
G1 X199.788 Y218.249 E0.02274 ; infill
G1 X193.332 Y211.793 E0.41146 ; infill
G1 X193.332 Y211.289 E0.02274 ; infill
G1 X200.293 Y218.249 E0.44362 ; infill
G1 X200.797 Y218.249 E0.02274 ; infill
G1 X193.332 Y210.784 E0.47578 ; infill
G1 X193.332 Y210.280 E0.02274 ; infill
G1 X201.302 Y218.249 E0.50793 ; infill
G1 X201.806 Y218.249 E0.02274 ; infill
G1 X193.332 Y209.775 E0.54009 ; infill
G1 X193.332 Y209.271 E0.02274 ; infill
G1 X202.311 Y218.249 E0.57225 ; infill
G1 X202.815 Y218.249 E0.02274 ; infill
G1 X193.332 Y208.766 E0.60441 ; infill
G1 X193.332 Y208.262 E0.02274 ; infill
G1 X203.320 Y218.249 E0.63656 ; infill
G1 X203.824 Y218.249 E0.02274 ; infill
G1 X193.332 Y207.757 E0.66872 ; infill
G1 X193.332 Y207.253 E0.02274 ; infill
G1 X204.329 Y218.249 E0.70088 ; infill
G1 X204.834 Y218.249 E0.02274 ; infill
G1 X193.332 Y206.748 E0.73304 ; infill
G1 X193.332 Y206.243 E0.02274 ; infill
G1 X205.338 Y218.249 E0.76519 ; infill
G1 X205.843 Y218.249 E0.02274 ; infill
G1 X193.332 Y205.739 E0.79735 ; infill
G1 X193.332 Y205.234 E0.02274 ; infill
G1 X206.347 Y218.249 E0.82951 ; infill
G1 X206.852 Y218.249 E0.02274 ; infill
G1 X193.332 Y204.730 E0.86167 ; infill
G1 X193.332 Y204.225 E0.02274 ; infill
G1 X207.356 Y218.249 E0.89382 ; infill
G1 X207.861 Y218.249 E0.02274 ; infill
G1 X193.332 Y203.721 E0.92598 ; infill
G1 X193.332 Y203.216 E0.02274 ; infill
G1 X208.365 Y218.249 E0.95814 ; infill
G1 X208.870 Y218.249 E0.02274 ; infill
G1 X193.332 Y202.712 E0.99029 ; infill
G1 X193.332 Y202.207 E0.02274 ; infill
G1 X209.374 Y218.249 E1.02245 ; infill
G1 X209.879 Y218.249 E0.02274 ; infill
G1 X193.332 Y201.703 E1.05461 ; infill
G1 X193.332 Y201.198 E0.02274 ; infill
G1 X210.384 Y218.249 E1.08677 ; infill
G1 X210.888 Y218.249 E0.02274 ; infill
G1 X193.332 Y200.693 E1.11892 ; infill
G1 X193.332 Y200.189 E0.02274 ; infill
G1 X211.393 Y218.249 E1.15108 ; infill
G1 X211.897 Y218.249 E0.02274 ; infill
G1 X193.332 Y199.684 E1.18324 ; infill
G1 X193.332 Y199.180 E0.02274 ; infill
G1 X212.402 Y218.249 E1.21540 ; infill
G1 X212.906 Y218.249 E0.02274 ; infill
G1 X193.332 Y198.675 E1.24755 ; infill
G1 X193.332 Y198.171 E0.02274 ; infill
G1 X213.411 Y218.249 E1.27971 ; infill
G1 X213.915 Y218.249 E0.02274 ; infill
G1 X193.332 Y197.666 E1.31187 ; infill
G1 X193.332 Y197.414 E0.01137 ; infill
G1 X193.585 Y197.414 E0.01137 ; infill
G1 X214.168 Y217.997 E1.31187 ; infill
G1 X214.168 Y217.492 E0.02274 ; infill
G1 X194.089 Y197.414 E1.27971 ; infill
G1 X194.594 Y197.414 E0.02274 ; infill
G1 X214.168 Y216.988 E1.24756 ; infill
G1 X214.168 Y216.483 E0.02274 ; infill
G1 X195.098 Y197.414 E1.21540 ; infill
G1 X195.603 Y197.414 E0.02274 ; infill
G1 X214.168 Y215.979 E1.18324 ; infill
G1 X214.168 Y215.474 E0.02274 ; infill
G1 X196.107 Y197.414 E1.15108 ; infill
G1 X196.612 Y197.414 E0.02274 ; infill
G1 X214.168 Y214.970 E1.11893 ; infill
G1 X214.168 Y214.465 E0.02274 ; infill
G1 X197.116 Y197.414 E1.08677 ; infill
G1 X197.621 Y197.414 E0.02274 ; infill
G1 X214.168 Y213.961 E1.05461 ; infill
G1 X214.168 Y213.456 E0.02274 ; infill
G1 X198.125 Y197.414 E1.02245 ; infill
G1 X198.630 Y197.414 E0.02274 ; infill
G1 X214.168 Y212.952 E0.99030 ; infill
G1 X214.168 Y212.447 E0.02274 ; infill
G1 X199.135 Y197.414 E0.95814 ; infill
G1 X199.639 Y197.414 E0.02274 ; infill
G1 X214.168 Y211.942 E0.92598 ; infill
G1 X214.168 Y211.438 E0.02274 ; infill
G1 X200.144 Y197.414 E0.89382 ; infill
G1 X200.648 Y197.414 E0.02274 ; infill
G1 X214.168 Y210.933 E0.86167 ; infill
G1 X214.168 Y210.429 E0.02274 ; infill
G1 X201.153 Y197.414 E0.82951 ; infill
G1 X201.657 Y197.414 E0.02274 ; infill
G1 X214.168 Y209.924 E0.79735 ; infill
G1 X214.168 Y209.420 E0.02274 ; infill
G1 X202.162 Y197.414 E0.76520 ; infill
G1 X202.666 Y197.414 E0.02274 ; infill
G1 X214.168 Y208.915 E0.73304 ; infill
G1 X214.168 Y208.411 E0.02274 ; infill
G1 X203.171 Y197.414 E0.70088 ; infill
G1 X203.675 Y197.414 E0.02274 ; infill
G1 X214.168 Y207.906 E0.66872 ; infill
G1 X214.168 Y207.402 E0.02274 ; infill
G1 X204.180 Y197.414 E0.63657 ; infill
G1 X204.685 Y197.414 E0.02274 ; infill
G1 X214.168 Y206.897 E0.60441 ; infill
G1 X214.168 Y206.392 E0.02274 ; infill
G1 X205.189 Y197.414 E0.57225 ; infill
G1 X205.694 Y197.414 E0.02274 ; infill
G1 X214.168 Y205.888 E0.54009 ; infill
G1 X214.168 Y205.383 E0.02274 ; infill
G1 X206.198 Y197.414 E0.50794 ; infill
G1 X206.703 Y197.414 E0.02274 ; infill
G1 X214.168 Y204.879 E0.47578 ; infill
G1 X214.168 Y204.374 E0.02274 ; infill
G1 X207.207 Y197.414 E0.44362 ; infill
G1 X207.712 Y197.414 E0.02274 ; infill
G1 X214.168 Y203.870 E0.41146 ; infill
G1 X214.168 Y203.365 E0.02274 ; infill
G1 X208.216 Y197.414 E0.37931 ; infill
G1 X208.721 Y197.414 E0.02274 ; infill
G1 X214.168 Y202.861 E0.34715 ; infill
G1 X214.168 Y202.356 E0.02274 ; infill
G1 X209.225 Y197.414 E0.31499 ; infill
G1 X209.730 Y197.414 E0.02274 ; infill
G1 X214.168 Y201.852 E0.28283 ; infill
G1 X214.168 Y201.347 E0.02274 ; infill
G1 X210.235 Y197.414 E0.25068 ; infill
G1 X210.739 Y197.414 E0.02274 ; infill
G1 X214.168 Y200.842 E0.21852 ; infill
G1 X214.168 Y200.338 E0.02274 ; infill
G1 X211.244 Y197.414 E0.18636 ; infill
G1 X211.748 Y197.414 E0.02274 ; infill
G1 X214.168 Y199.833 E0.15420 ; infill
G1 X214.168 Y199.329 E0.02274 ; infill
G1 X212.253 Y197.414 E0.12205 ; infill
G1 X212.757 Y197.414 E0.02274 ; infill
G1 X214.168 Y198.824 E0.08989 ; infill
G1 X214.168 Y198.320 E0.02274 ; infill
G1 X213.262 Y197.414 E0.05773 ; infill
G1 X213.766 Y197.414 E0.02274 ; infill
G1 X214.328 Y197.975 E0.03577 ; infill
G1 E-3.15000 F2100.00000 ; retract
G1 F7200.000
G1 X213.766 Y197.414 E-0.21995 ; wipe and retract
G1 X213.262 Y197.414 E-0.13980 ; wipe and retract
G1 X214.168 Y198.320 E-0.35495 ; wipe and retract
G1 X214.168 Y198.824 E-0.13980 ; wipe and retract
G1 X213.075 Y197.732 E-0.42800 ; wipe and retract
G1 E-0.06750 F2100.00000 ; retract
G1 X214.328 Y10.475 F9000.000 ; move to first infill point
G1 E4.50000 F2400.00000 ; unretract
G1 F600.000
G1 X213.766 Y9.914 E0.03577 ; infill
G1 X213.262 Y9.914 E0.02274 ; infill
G1 X214.168 Y10.820 E0.05773 ; infill
G1 X214.168 Y11.324 E0.02274 ; infill
G1 X212.757 Y9.914 E0.08989 ; infill
G1 X212.253 Y9.914 E0.02274 ; infill
G1 X214.168 Y11.829 E0.12205 ; infill
G1 X214.168 Y12.333 E0.02274 ; infill
G1 X211.748 Y9.914 E0.15420 ; infill
G1 X211.244 Y9.914 E0.02274 ; infill
G1 X214.168 Y12.838 E0.18636 ; infill
G1 X214.168 Y13.342 E0.02274 ; infill
G1 X210.739 Y9.914 E0.21852 ; infill
G1 X210.235 Y9.914 E0.02274 ; infill
G1 X214.168 Y13.847 E0.25068 ; infill
G1 X214.168 Y14.352 E0.02274 ; infill
G1 X209.730 Y9.914 E0.28283 ; infill
G1 X209.225 Y9.914 E0.02274 ; infill
G1 X214.168 Y14.856 E0.31499 ; infill
G1 X214.168 Y15.361 E0.02274 ; infill
G1 X208.721 Y9.914 E0.34715 ; infill
G1 X208.216 Y9.914 E0.02274 ; infill
G1 X214.168 Y15.865 E0.37931 ; infill
G1 X214.168 Y16.370 E0.02274 ; infill
G1 X207.712 Y9.914 E0.41146 ; infill
G1 X207.207 Y9.914 E0.02274 ; infill
G1 X214.168 Y16.874 E0.44362 ; infill
G1 X214.168 Y17.379 E0.02274 ; infill
G1 X206.703 Y9.914 E0.47578 ; infill
G1 X206.198 Y9.914 E0.02274 ; infill
G1 X214.168 Y17.883 E0.50794 ; infill
G1 X214.168 Y18.388 E0.02274 ; infill
G1 X205.694 Y9.914 E0.54009 ; infill
